bernoullicharts/2014_sub_x-0_1_bits.svg

<?xml version="1.0" encoding="utf-8" standalone="no"?>
<!DOCTYPE svg PUBLIC "-//W3C//DTD SVG 1.1//EN"
  "http://www.w3.org/Graphics/SVG/1.1/DTD/svg11.dtd">
<!-- Created with matplotlib (https://matplotlib.org/) -->
<svg height="345.6pt" version="1.1" viewBox="0 0 460.8 345.6" width="460.8pt" xmlns="http://www.w3.org/2000/svg" xmlns:xlink="http://www.w3.org/1999/xlink">
 <defs>
  <style type="text/css">
*{stroke-linecap:butt;stroke-linejoin:round;}
  </style>
 </defs>
 <g id="figure_1">
  <g id="patch_1">
   <path d="M 0 345.6 
L 460.8 345.6 
L 460.8 0 
L 0 0 
z
" style="fill:#ffffff;"/>
  </g>
  <g id="axes_1">
   <g id="patch_2">
    <path d="M 57.6 307.584 
L 414.72 307.584 
L 414.72 41.472 
L 57.6 41.472 
z
" style="fill:#ffffff;"/>
   </g>
   <g id="matplotlib.axis_1">
    <g id="xtick_1">
     <g id="line2d_1">
      <defs>
       <path d="M 0 0 
L 0 3.5 
" id="m06ffb58932" style="stroke:#000000;stroke-width:0.8;"/>
      </defs>
      <g>
       <use style="stroke:#000000;stroke-width:0.8;" x="98.489328" xlink:href="#m06ffb58932" y="307.584"/>
      </g>
     </g>
     <g id="text_1">
      <text style="font-family:DejaVu Sans;font-size:10px;font-style:normal;font-weight:normal;text-anchor:middle;" transform="rotate(-0, 98.489328, 322.182437)" x="98.489328" y="322.182437">0.3</text>
     </g>
    </g>
    <g id="xtick_2">
     <g id="line2d_2">
      <g>
       <use style="stroke:#000000;stroke-width:0.8;" x="141.3523" xlink:href="#m06ffb58932" y="307.584"/>
      </g>
     </g>
     <g id="text_2">
      <text style="font-family:DejaVu Sans;font-size:10px;font-style:normal;font-weight:normal;text-anchor:middle;" transform="rotate(-0, 141.3523, 322.182437)" x="141.3523" y="322.182437">0.4</text>
     </g>
    </g>
    <g id="xtick_3">
     <g id="line2d_3">
      <g>
       <use style="stroke:#000000;stroke-width:0.8;" x="184.215273" xlink:href="#m06ffb58932" y="307.584"/>
      </g>
     </g>
     <g id="text_3">
      <text style="font-family:DejaVu Sans;font-size:10px;font-style:normal;font-weight:normal;text-anchor:middle;" transform="rotate(-0, 184.215273, 322.182437)" x="184.215273" y="322.182437">0.5</text>
     </g>
    </g>
    <g id="xtick_4">
     <g id="line2d_4">
      <g>
       <use style="stroke:#000000;stroke-width:0.8;" x="227.078245" xlink:href="#m06ffb58932" y="307.584"/>
      </g>
     </g>
     <g id="text_4">
      <text style="font-family:DejaVu Sans;font-size:10px;font-style:normal;font-weight:normal;text-anchor:middle;" transform="rotate(-0, 227.078245, 322.182437)" x="227.078245" y="322.182437">0.6</text>
     </g>
    </g>
    <g id="xtick_5">
     <g id="line2d_5">
      <g>
       <use style="stroke:#000000;stroke-width:0.8;" x="269.941218" xlink:href="#m06ffb58932" y="307.584"/>
      </g>
     </g>
     <g id="text_5">
      <text style="font-family:DejaVu Sans;font-size:10px;font-style:normal;font-weight:normal;text-anchor:middle;" transform="rotate(-0, 269.941218, 322.182437)" x="269.941218" y="322.182437">0.7</text>
     </g>
    </g>
    <g id="xtick_6">
     <g id="line2d_6">
      <g>
       <use style="stroke:#000000;stroke-width:0.8;" x="312.804191" xlink:href="#m06ffb58932" y="307.584"/>
      </g>
     </g>
     <g id="text_6">
      <text style="font-family:DejaVu Sans;font-size:10px;font-style:normal;font-weight:normal;text-anchor:middle;" transform="rotate(-0, 312.804191, 322.182437)" x="312.804191" y="322.182437">0.8</text>
     </g>
    </g>
    <g id="xtick_7">
     <g id="line2d_7">
      <g>
       <use style="stroke:#000000;stroke-width:0.8;" x="355.667163" xlink:href="#m06ffb58932" y="307.584"/>
      </g>
     </g>
     <g id="text_7">
      <text style="font-family:DejaVu Sans;font-size:10px;font-style:normal;font-weight:normal;text-anchor:middle;" transform="rotate(-0, 355.667163, 322.182437)" x="355.667163" y="322.182437">0.9</text>
     </g>
    </g>
    <g id="xtick_8">
     <g id="line2d_8">
      <g>
       <use style="stroke:#000000;stroke-width:0.8;" x="398.530136" xlink:href="#m06ffb58932" y="307.584"/>
      </g>
     </g>
     <g id="text_8">
      <text style="font-family:DejaVu Sans;font-size:10px;font-style:normal;font-weight:normal;text-anchor:middle;" transform="rotate(-0, 398.530136, 322.182437)" x="398.530136" y="322.182437">1.0</text>
     </g>
    </g>
    <g id="text_9">
     <text style="font-family:DejaVu Sans;font-size:10px;font-style:normal;font-weight:normal;text-anchor:middle;" transform="rotate(-0, 236.16, 335.860562)" x="236.16" y="335.860562">Probability</text>
    </g>
   </g>
   <g id="matplotlib.axis_2">
    <g id="ytick_1">
     <g id="line2d_9">
      <defs>
       <path d="M 0 0 
L -3.5 0 
" id="me74853186c" style="stroke:#000000;stroke-width:0.8;"/>
      </defs>
      <g>
       <use style="stroke:#000000;stroke-width:0.8;" x="57.6" xlink:href="#me74853186c" y="283.864274"/>
      </g>
     </g>
     <g id="text_10">
      <text style="font-family:DejaVu Sans;font-size:10px;font-style:normal;font-weight:normal;text-anchor:end;" transform="rotate(-0, 50.6, 287.663493)" x="50.6" y="287.663493">50</text>
     </g>
    </g>
    <g id="ytick_2">
     <g id="line2d_10">
      <g>
       <use style="stroke:#000000;stroke-width:0.8;" x="57.6" xlink:href="#me74853186c" y="243.793514"/>
      </g>
     </g>
     <g id="text_11">
      <text style="font-family:DejaVu Sans;font-size:10px;font-style:normal;font-weight:normal;text-anchor:end;" transform="rotate(-0, 50.6, 247.592733)" x="50.6" y="247.592733">100</text>
     </g>
    </g>
    <g id="ytick_3">
     <g id="line2d_11">
      <g>
       <use style="stroke:#000000;stroke-width:0.8;" x="57.6" xlink:href="#me74853186c" y="203.722754"/>
      </g>
     </g>
     <g id="text_12">
      <text style="font-family:DejaVu Sans;font-size:10px;font-style:normal;font-weight:normal;text-anchor:end;" transform="rotate(-0, 50.6, 207.521973)" x="50.6" y="207.521973">150</text>
     </g>
    </g>
    <g id="ytick_4">
     <g id="line2d_12">
      <g>
       <use style="stroke:#000000;stroke-width:0.8;" x="57.6" xlink:href="#me74853186c" y="163.651994"/>
      </g>
     </g>
     <g id="text_13">
      <text style="font-family:DejaVu Sans;font-size:10px;font-style:normal;font-weight:normal;text-anchor:end;" transform="rotate(-0, 50.6, 167.451213)" x="50.6" y="167.451213">200</text>
     </g>
    </g>
    <g id="ytick_5">
     <g id="line2d_13">
      <g>
       <use style="stroke:#000000;stroke-width:0.8;" x="57.6" xlink:href="#me74853186c" y="123.581234"/>
      </g>
     </g>
     <g id="text_14">
      <text style="font-family:DejaVu Sans;font-size:10px;font-style:normal;font-weight:normal;text-anchor:end;" transform="rotate(-0, 50.6, 127.380453)" x="50.6" y="127.380453">250</text>
     </g>
    </g>
    <g id="ytick_6">
     <g id="line2d_14">
      <g>
       <use style="stroke:#000000;stroke-width:0.8;" x="57.6" xlink:href="#me74853186c" y="83.510475"/>
      </g>
     </g>
     <g id="text_15">
      <text style="font-family:DejaVu Sans;font-size:10px;font-style:normal;font-weight:normal;text-anchor:end;" transform="rotate(-0, 50.6, 87.309693)" x="50.6" y="87.309693">300</text>
     </g>
    </g>
    <g id="ytick_7">
     <g id="line2d_15">
      <g>
       <use style="stroke:#000000;stroke-width:0.8;" x="57.6" xlink:href="#me74853186c" y="43.439715"/>
      </g>
     </g>
     <g id="text_16">
      <text style="font-family:DejaVu Sans;font-size:10px;font-style:normal;font-weight:normal;text-anchor:end;" transform="rotate(-0, 50.6, 47.238933)" x="50.6" y="47.238933">350</text>
     </g>
    </g>
    <g id="text_17">
     <text style="font-family:DejaVu Sans;font-size:10px;font-style:normal;font-weight:normal;text-anchor:middle;" transform="rotate(-90, 25.432812, 174.528)" x="25.432812" y="174.528">Average Bits Consumed Per Call</text>
    </g>
   </g>
   <g id="line2d_16">
    <path clip-path="url(#pad121f9692)" d="M 73.832727 232.57851 
M 82.490182 232.693914 
M 91.147636 242.235563 
L 95.476364 213.480786 
L 99.805091 251.104024 
L 104.133818 241.578402 
L 108.462545 263.155705 
M 117.12 232.089647 
L 121.448727 241.602445 
M 134.434909 265.324335 
L 138.763636 261.075231 
L 143.092364 273.021126 
L 147.421091 261.451897 
L 151.749818 269.230432 
L 156.078545 260.62163 
L 160.407273 258.502689 
M 169.064727 266.784513 
L 173.393455 265.668943 
L 177.722182 274.854764 
L 182.050909 264.776167 
L 186.379636 274.556638 
L 190.708364 263.901021 
L 195.037091 271.293275 
L 199.365818 278.246353 
L 203.694545 273.027538 
L 208.023273 275.838902 
L 212.352 277.390442 
L 216.680727 276.50568 
L 221.009455 268.029913 
L 225.338182 282.66696 
L 229.666909 274.324227 
L 233.995636 278.243148 
L 238.324364 278.432282 
L 242.653091 281.057718 
L 246.981818 281.102597 
L 251.310545 282.198933 
L 255.639273 280.126473 
L 259.968 287.185339 
L 264.296727 284.107904 
L 268.625455 272.341526 
L 272.954182 285.03434 
L 277.282909 282.628492 
L 281.611636 283.630261 
L 285.940364 287.420955 
L 290.269091 290.528843 
L 294.597818 287.29914 
L 298.926545 284.181634 
L 303.255273 290.397411 
L 307.584 289.355571 
L 311.912727 279.852389 
L 316.241455 287.6165 
L 320.570182 289.656903 
L 324.898909 287.430572 
L 329.227636 290.947181 
L 333.556364 289.129572 
L 337.885091 290.86704 
L 342.213818 292.2599 
L 346.542545 291.044954 
L 350.871273 285.303616 
L 355.2 286.164336 
L 359.528727 292.370495 
L 363.857455 290.980841 
M 372.514909 288.95326 
L 376.843636 284.006926 
L 381.172364 287.396912 
L 385.501091 289.652095 
L 389.829818 288.249618 
L 394.158545 284.712171 
L 398.487273 289.450138 
" style="fill:none;stroke:#1f77b4;stroke-linecap:square;stroke-width:1.5;"/>
   </g>
   <g id="line2d_17">
    <path clip-path="url(#pad121f9692)" d="M 104.133818 102.621021 
L 108.462545 53.568 
M 117.12 98.631577 
L 121.448727 96.200083 
M 130.106182 144.097464 
L 134.434909 151.77983 
L 138.763636 130.38525 
L 143.092364 174.112066 
L 147.421091 160.959239 
L 151.749818 177.268039 
L 156.078545 163.47408 
L 160.407273 165.468001 
L 164.736 186.795262 
L 169.064727 178.256985 
L 173.393455 186.123676 
L 177.722182 179.332484 
L 182.050909 209.326249 
L 186.379636 184.74364 
L 190.708364 187.211998 
L 195.037091 204.144299 
L 199.365818 208.403019 
L 203.694545 209.021712 
L 208.023273 224.436131 
L 212.352 219.180451 
L 216.680727 230.938814 
L 221.009455 222.248268 
L 225.338182 219.335925 
L 229.666909 223.99375 
L 233.995636 224.819208 
L 238.324364 234.416956 
L 242.653091 222.313984 
L 246.981818 225.380199 
L 251.310545 225.463546 
L 255.639273 236.131985 
L 259.968 242.671533 
L 264.296727 236.771514 
L 268.625455 237.321285 
L 272.954182 237.9528 
L 277.282909 246.064725 
L 281.611636 236.939811 
L 285.940364 238.800697 
L 290.269091 247.499258 
L 294.597818 249.406626 
L 298.926545 249.446697 
L 303.255273 254.695966 
L 307.584 249.25596 
L 311.912727 241.160064 
L 316.241455 248.686955 
L 320.570182 245.696074 
L 324.898909 251.796446 
L 329.227636 247.488038 
L 333.556364 250.716139 
L 337.885091 255.061412 
L 342.213818 256.173776 
L 346.542545 255.436474 
L 350.871273 264.165488 
L 355.2 258.542759 
L 359.528727 259.248005 
L 363.857455 259.547734 
L 368.186182 256.875816 
L 372.514909 261.314053 
L 376.843636 258.805624 
L 381.172364 256.202627 
L 385.501091 257.326211 
L 389.829818 257.714096 
L 394.158545 260.381206 
L 398.487273 258.994758 
" style="fill:none;stroke:#ff7f0e;stroke-linecap:square;stroke-width:1.5;"/>
   </g>
   <g id="line2d_18">
    <path clip-path="url(#pad121f9692)" d="M 104.133818 194.577004 
M 117.12 183.637687 
L 121.448727 194.131417 
L 125.777455 194.1218 
M 143.092364 211.078143 
L 147.421091 212.756306 
M 160.407273 228.867957 
L 164.736 212.684179 
M 173.393455 225.245561 
L 177.722182 241.108773 
L 182.050909 243.646054 
L 186.379636 240.467641 
M 195.037091 247.338975 
L 199.365818 248.83121 
L 203.694545 253.598028 
L 208.023273 257.12746 
L 212.352 252.32538 
L 216.680727 255.503793 
M 225.338182 257.690054 
L 229.666909 257.959329 
L 233.995636 264.864322 
M 242.653091 262.698899 
L 246.981818 264.367445 
L 251.310545 262.296588 
L 255.639273 266.411054 
L 259.968 267.597148 
L 264.296727 269.105412 
L 268.625455 271.004766 
L 272.954182 273.652642 
L 277.282909 269.345836 
L 281.611636 277.302286 
L 285.940364 274.002059 
L 290.269091 277.34396 
L 294.597818 278.419459 
L 298.926545 275.705867 
L 303.255273 277.509051 
L 307.584 276.707636 
L 311.912727 276.202745 
L 316.241455 275.970334 
L 320.570182 285.202637 
L 324.898909 284.686526 
L 329.227636 283.720019 
L 333.556364 286.396746 
L 337.885091 283.965252 
L 342.213818 283.630261 
L 346.542545 283.125369 
L 350.871273 284.992667 
L 355.2 283.76009 
L 359.528727 286.444831 
L 363.857455 286.508944 
L 368.186182 284.583945 
L 372.514909 285.592125 
L 376.843636 284.385194 
L 381.172364 285.370935 
L 385.501091 283.508446 
L 389.829818 284.819561 
L 394.158545 295.201093 
L 398.487273 295.488 
" style="fill:none;stroke:#2ca02c;stroke-linecap:square;stroke-width:1.5;"/>
   </g>
   <g id="patch_3">
    <path d="M 57.6 307.584 
L 57.6 41.472 
" style="fill:none;stroke:#000000;stroke-linecap:square;stroke-linejoin:miter;stroke-width:0.8;"/>
   </g>
   <g id="patch_4">
    <path d="M 414.72 307.584 
L 414.72 41.472 
" style="fill:none;stroke:#000000;stroke-linecap:square;stroke-linejoin:miter;stroke-width:0.8;"/>
   </g>
   <g id="patch_5">
    <path d="M 57.6 307.584 
L 414.72 307.584 
" style="fill:none;stroke:#000000;stroke-linecap:square;stroke-linejoin:miter;stroke-width:0.8;"/>
   </g>
   <g id="patch_6">
    <path d="M 57.6 41.472 
L 414.72 41.472 
" style="fill:none;stroke:#000000;stroke-linecap:square;stroke-linejoin:miter;stroke-width:0.8;"/>
   </g>
   <g id="text_18">
    <text style="font-family:DejaVu Sans;font-size:12px;font-style:normal;font-weight:normal;text-anchor:middle;" transform="rotate(-0, 236.16, 35.472)" x="236.16" y="35.472">Avg. Bits Consumed by 2014 Sub. x-0.1 Algorithm</text>
   </g>
   <g id="legend_1">
    <g id="patch_7">
     <path d="M 296.271563 93.506375 
L 407.72 93.506375 
Q 409.72 93.506375 409.72 91.506375 
L 409.72 48.472 
Q 409.72 46.472 407.72 46.472 
L 296.271563 46.472 
Q 294.271563 46.472 294.271563 48.472 
L 294.271563 91.506375 
Q 294.271563 93.506375 296.271563 93.506375 
z
" style="fill:#ffffff;opacity:0.8;stroke:#cccccc;stroke-linejoin:miter;"/>
    </g>
    <g id="line2d_19">
     <path d="M 298.271563 54.570438 
L 318.271563 54.570438 
" style="fill:none;stroke:#1f77b4;stroke-linecap:square;stroke-width:1.5;"/>
    </g>
    <g id="line2d_20"/>
    <g id="text_19">
     <text style="font-family:DejaVu Sans;font-size:10px;font-style:normal;font-weight:normal;text-anchor:start;" transform="rotate(-0, 326.271563, 58.070438)" x="326.271563" y="58.070438">2014 Sub. x-0.1</text>
    </g>
    <g id="line2d_21">
     <path d="M 298.271563 69.248563 
L 318.271563 69.248563 
" style="fill:none;stroke:#ff7f0e;stroke-linecap:square;stroke-width:1.5;"/>
    </g>
    <g id="line2d_22"/>
    <g id="text_20">
     <text style="font-family:DejaVu Sans;font-size:10px;font-style:normal;font-weight:normal;text-anchor:start;" transform="rotate(-0, 326.271563, 72.748563)" x="326.271563" y="72.748563">2016 Sub. x-0.1</text>
    </g>
    <g id="line2d_23">
     <path d="M 298.271563 83.926688 
L 318.271563 83.926688 
" style="fill:none;stroke:#2ca02c;stroke-linecap:square;stroke-width:1.5;"/>
    </g>
    <g id="line2d_24"/>
    <g id="text_21">
     <text style="font-family:DejaVu Sans;font-size:10px;font-style:normal;font-weight:normal;text-anchor:start;" transform="rotate(-0, 326.271563, 87.426688)" x="326.271563" y="87.426688">2019 Sub. x-0.1</text>
    </g>
   </g>
  </g>
 </g>
 <defs>
  <clipPath id="pad121f9692">
   <rect height="266.112" width="357.12" x="57.6" y="41.472"/>
  </clipPath>
 </defs>
</svg>

<svg height="460.8" viewBox="0 0 460.8 345.6" width="614.4" xmlns="http://www.w3.org/2000/svg" xmlns:xlink="http://www.w3.org/1999/xlink"><defs><style>*{stroke-linecap:butt;stroke-linejoin:round}</style></defs><g id="figure_1"><path d="M0 345.6h460.8V0H0z" fill="#fff" id="patch_1"/><g id="axes_1"><path d="M57.6 307.584h357.12V41.472H57.6z" fill="#fff" id="patch_2"/><g id="matplotlib.axis_1"><g id="xtick_1"><g id="line2d_1"><defs><path d="M0 0v3.5" id="m06ffb58932" stroke="#000" stroke-width=".8"/></defs><use x="98.489" xlink:href="#m06ffb58932" y="307.584" stroke="#000" stroke-width=".8"/></g><text x="98.489" y="322.182" font-family="DejaVu Sans" font-size="10" font-weight="400" text-anchor="middle" id="text_1">0.3</text></g><g id="xtick_2"><use x="141.352" xlink:href="#m06ffb58932" y="307.584" stroke="#000" stroke-width=".8" id="line2d_2"/><text x="141.352" y="322.182" font-family="DejaVu Sans" font-size="10" font-weight="400" text-anchor="middle" id="text_2">0.4</text></g><g id="xtick_3"><use x="184.215" xlink:href="#m06ffb58932" y="307.584" stroke="#000" stroke-width=".8" id="line2d_3"/><text x="184.215" y="322.182" font-family="DejaVu Sans" font-size="10" font-weight="400" text-anchor="middle" id="text_3">0.5</text></g><g id="xtick_4"><use x="227.078" xlink:href="#m06ffb58932" y="307.584" stroke="#000" stroke-width=".8" id="line2d_4"/><text x="227.078" y="322.182" font-family="DejaVu Sans" font-size="10" font-weight="400" text-anchor="middle" id="text_4">0.6</text></g><g id="xtick_5"><use x="269.941" xlink:href="#m06ffb58932" y="307.584" stroke="#000" stroke-width=".8" id="line2d_5"/><text x="269.941" y="322.182" font-family="DejaVu Sans" font-size="10" font-weight="400" text-anchor="middle" id="text_5">0.7</text></g><g id="xtick_6"><use x="312.804" xlink:href="#m06ffb58932" y="307.584" stroke="#000" stroke-width=".8" id="line2d_6"/><text x="312.804" y="322.182" font-family="DejaVu Sans" font-size="10" font-weight="400" text-anchor="middle" id="text_6">0.8</text></g><g id="xtick_7"><use x="355.667" xlink:href="#m06ffb58932" y="307.584" stroke="#000" stroke-width=".8" id="line2d_7"/><text x="355.667" y="322.182" font-family="DejaVu Sans" font-size="10" font-weight="400" text-anchor="middle" id="text_7">0.9</text></g><g id="xtick_8"><use x="398.53" xlink:href="#m06ffb58932" y="307.584" stroke="#000" stroke-width=".8" id="line2d_8"/><text x="398.53" y="322.182" font-family="DejaVu Sans" font-size="10" font-weight="400" text-anchor="middle" id="text_8">1.0</text></g><text x="236.16" y="335.861" font-family="DejaVu Sans" font-size="10" font-weight="400" text-anchor="middle" id="text_9">Probability</text></g><g id="matplotlib.axis_2"><g id="ytick_1"><g id="line2d_9"><defs><path d="M0 0h-3.5" id="me74853186c" stroke="#000" stroke-width=".8"/></defs><use x="57.6" xlink:href="#me74853186c" y="283.864" stroke="#000" stroke-width=".8"/></g><text x="50.6" y="287.663" font-family="DejaVu Sans" font-size="10" font-weight="400" text-anchor="end" id="text_10">50</text></g><g id="ytick_2"><use x="57.6" xlink:href="#me74853186c" y="243.794" stroke="#000" stroke-width=".8" id="line2d_10"/><text x="50.6" y="247.593" font-family="DejaVu Sans" font-size="10" font-weight="400" text-anchor="end" id="text_11">100</text></g><g id="ytick_3"><use x="57.6" xlink:href="#me74853186c" y="203.723" stroke="#000" stroke-width=".8" id="line2d_11"/><text x="50.6" y="207.522" font-family="DejaVu Sans" font-size="10" font-weight="400" text-anchor="end" id="text_12">150</text></g><g id="ytick_4"><use x="57.6" xlink:href="#me74853186c" y="163.652" stroke="#000" stroke-width=".8" id="line2d_12"/><text x="50.6" y="167.451" font-family="DejaVu Sans" font-size="10" font-weight="400" text-anchor="end" id="text_13">200</text></g><g id="ytick_5"><use x="57.6" xlink:href="#me74853186c" y="123.581" stroke="#000" stroke-width=".8" id="line2d_13"/><text x="50.6" y="127.38" font-family="DejaVu Sans" font-size="10" font-weight="400" text-anchor="end" id="text_14">250</text></g><g id="ytick_6"><use x="57.6" xlink:href="#me74853186c" y="83.51" stroke="#000" stroke-width=".8" id="line2d_14"/><text x="50.6" y="87.31" font-family="DejaVu Sans" font-size="10" font-weight="400" text-anchor="end" id="text_15">300</text></g><g id="ytick_7"><use x="57.6" xlink:href="#me74853186c" y="43.44" stroke="#000" stroke-width=".8" id="line2d_15"/><text x="50.6" y="47.239" font-family="DejaVu Sans" font-size="10" font-weight="400" text-anchor="end" id="text_16">350</text></g><text transform="rotate(-90 25.433 174.528)" x="25.433" y="174.528" font-family="DejaVu Sans" font-size="10" font-weight="400" text-anchor="middle" id="text_17">Average Bits Consumed Per Call</text></g><path clip-path="url(#pad121f9692)" d="M91.148 242.23600000000002l4.328-28.755 4.33 37.623 4.328-9.526 4.329 21.578m8.657-31.066l4.329 9.512m12.986 23.722l4.329-4.249 4.328 11.946 4.33-11.57 4.328 7.78 4.329-8.61 4.328-2.118m8.658 8.282l4.328-1.116 4.33 9.186 4.328-10.079 4.329 9.78 4.328-10.655 4.33 7.392 4.328 6.953 4.329-5.218 4.328 2.81 4.329 1.552 4.329-.884 4.328-8.476 4.33 14.637 4.328-8.343 4.329 3.92 4.328.188 4.33 2.626 4.328.045 4.329 1.096 4.328-2.073 4.329 7.06 4.329-3.078 4.328-11.766 4.33 12.692 4.328-2.406 4.329 1.002 4.328 3.791 4.33 3.108 4.328-3.23 4.329-3.117 4.328 6.215 4.329-1.041 4.329-9.504 4.328 7.764 4.33 2.04 4.328-2.225 4.329 3.516 4.328-1.817 4.33 1.737 4.328 1.393 4.329-1.215 4.328-5.741 4.329.86 4.329 6.206 4.328-1.39m8.658-2.027l4.329-4.946 4.328 3.39 4.33 2.255 4.328-1.402 4.329-3.538 4.328 4.738" fill="none" stroke="#1f77b4" stroke-linecap="square" stroke-width="1.5" id="line2d_16"/><path clip-path="url(#pad121f9692)" d="M104.134 102.621l4.329-49.053m8.657 45.064l4.329-2.432m8.657 47.897l4.329 7.683 4.329-21.395 4.328 43.727 4.33-13.153 4.328 16.309 4.329-13.794 4.328 1.994 4.329 21.327 4.329-8.538 4.328 7.867 4.33-6.792 4.328 29.994 4.329-24.582 4.328 2.468 4.33 16.932 4.328 4.259 4.329.619 4.328 15.414 4.329-5.256 4.329 11.759 4.328-8.69 4.33-2.913 4.328 4.658 4.329.825 4.328 9.598 4.33-12.103 4.328 3.066 4.329.084 4.328 10.668 4.329 6.54 4.329-5.9 4.328.55 4.33.63 4.328 8.113 4.329-9.125 4.328 1.86 4.33 8.7 4.328 1.907 4.329.04 4.328 5.249 4.329-5.44 4.329-8.096 4.328 7.527 4.33-2.99 4.328 6.1 4.329-4.309 4.328 3.228 4.33 4.345 4.328 1.113 4.329-.738 4.328 8.73 4.329-5.623 4.329.705 4.328.3 4.33-2.672 4.328 4.438 4.329-2.508 4.328-2.603 4.33 1.123 4.328.388 4.329 2.667 4.328-1.386" fill="none" stroke="#ff7f0e" stroke-linecap="square" stroke-width="1.5" id="line2d_17"/><path clip-path="url(#pad121f9692)" d="M117.12 183.637l4.329 10.494 4.328-.01m17.315 16.957l4.33 1.678m12.985 16.112l4.329-16.184m8.657 12.562l4.33 15.863 4.328 2.537 4.329-3.178m8.657 6.871l4.329 1.492 4.329 4.767 4.328 3.53 4.329-4.803 4.329 3.179m8.657 2.186l4.329.27 4.329 6.904m8.657-2.165l4.329 1.668 4.329-2.07 4.328 4.114 4.329 1.186 4.329 1.508 4.328 1.9 4.33 2.648 4.328-4.307 4.329 7.956 4.328-3.3 4.33 3.342 4.328 1.075 4.329-2.713 4.328 1.803 4.329-.801 4.329-.505 4.328-.233 4.33 9.233 4.328-.516 4.329-.967 4.328 2.677 4.33-2.432 4.328-.335 4.329-.505 4.328 1.868 4.329-1.233 4.329 2.685 4.328.064 4.33-1.925 4.328 1.008 4.329-1.207 4.328.986 4.33-1.863 4.328 1.312 4.329 10.381 4.328.287" fill="none" stroke="#2ca02c" stroke-linecap="square" stroke-width="1.5" id="line2d_18"/><path d="M57.6 307.584V41.472" fill="none" stroke="#000" stroke-linecap="square" stroke-width=".8" id="patch_3"/><path d="M414.72 307.584V41.472" fill="none" stroke="#000" stroke-linecap="square" stroke-width=".8" id="patch_4"/><path d="M57.6 307.584h357.12" fill="none" stroke="#000" stroke-linecap="square" stroke-width=".8" id="patch_5"/><path d="M57.6 41.472h357.12" fill="none" stroke="#000" stroke-linecap="square" stroke-width=".8" id="patch_6"/><text x="236.16" y="35.472" font-family="DejaVu Sans" font-size="12" font-weight="400" text-anchor="middle" id="text_18">Avg. Bits Consumed by 2014 Sub. x-0.1 Algorithm</text><g id="legend_1"><path d="M296.272 93.506H407.72q2 0 2-2V48.472q0-2-2-2H296.272q-2 0-2 2v43.034q0 2 2 2z" fill="#fff" opacity=".8" stroke="#ccc" id="patch_7"/><path d="M298.272 54.57h20" fill="none" stroke="#1f77b4" stroke-linecap="square" stroke-width="1.5" id="line2d_19"/><text x="326.272" y="58.07" font-family="DejaVu Sans" font-size="10" font-weight="400" id="text_19">2014 Sub. x-0.1</text><path d="M298.272 69.249h20" fill="none" stroke="#ff7f0e" stroke-linecap="square" stroke-width="1.5" id="line2d_21"/><text x="326.272" y="72.749" font-family="DejaVu Sans" font-size="10" font-weight="400" id="text_20">2016 Sub. x-0.1</text><path d="M298.272 83.927h20" fill="none" stroke="#2ca02c" stroke-linecap="square" stroke-width="1.5" id="line2d_23"/><text x="326.272" y="87.427" font-family="DejaVu Sans" font-size="10" font-weight="400" id="text_21">2019 Sub. x-0.1</text></g></g></g><defs><clipPath id="pad121f9692"><path d="M57.6 41.472h357.12v266.112H57.6z"/></clipPath></defs></svg>
